src/icons/motor.svg

<svg xmlns="http://www.w3.org/2000/svg" xml:space="preserve" style="fill-rule:evenodd;clip-rule:evenodd;stroke-linejoin:round;stroke-miterlimit:2" viewBox="0 0 480 416"><path d="M456 144H280v-16h24c4.389 0 8-3.611 8-8V56c0-4.389-3.611-8-8-8h-16V32c0-4.389-3.611-8-8-8h-32c-4.389 0-8 3.611-8 8v16h-16V32c0-4.389-3.611-8-8-8h-32c-4.389 0-8 3.611-8 8v16h-16c-4.389 0-8 3.611-8 8v64c0 4.389 3.611 8 8 8h24v16h-80c-13.166 0-24 10.834-24 24v56H24c-4.389 0-8 3.611-8 8v48c0 4.389 3.611 8 8 8h56v64c0 13.166 10.834 24 24 24h64v16h-32c-4.389 0-8 3.611-8 8v32c0 4.389 3.611 8 8 8h272c4.389 0 8-3.611 8-8v-32c0-4.389-3.611-8-8-8h-32v-16h80c21.933-.026 39.974-18.067 40-40V184c-.026-21.933-18.067-39.974-40-40m-56 216H152V160h248zM256 40h16v8h-16zm-64 0h16v8h-16zm-24 24h128v48H168zm32 64h64v16h-64zM32 272v-32h48v32zm104 88h-32c-4.389 0-8-3.611-8-8V168c0-4.389 3.611-8 8-8h32zm264 64H144v-16h256zm-40-32H184v-16h176zm120-56c0 13.166-10.834 24-24 24h-40V160h40c13.166 0 24 10.834 24 24z" style="fill-rule:nonzero" transform="translate(-16 -24)"/><path d="M432 184h32v16h-32zM432 216h32v16h-32zM176 176v160c0 4.389 3.611 8 8 8h184c4.389 0 8-3.611 8-8V176c0-4.389-3.611-8-8-8H184c-4.389 0-8 3.611-8 8m16 56h168v48H192zm0 64h168v8H192zm168-80H192v-8h168zM192 328v-8h168v8zm168-144v8H192v-8z" style="fill-rule:nonzero" transform="translate(-16 -24)"/></svg>

<?xml version="1.0" encoding="UTF-8" standalone="no"?>
<!DOCTYPE svg PUBLIC "-//W3C//DTD SVG 1.1//EN" "http://www.w3.org/Graphics/SVG/1.1/DTD/svg11.dtd">
<svg width="100%" height="100%" viewBox="0 0 480 416" version="1.1" xmlns="http://www.w3.org/2000/svg" xmlns:xlink="http://www.w3.org/1999/xlink" xml:space="preserve" style="fill-rule:evenodd;clip-rule:evenodd;stroke-linejoin:round;stroke-miterlimit:2;">
    <g transform="matrix(1,0,0,1,-16,-24)">
        <g id="Electric_Motor-electronics">
            <path d="M456,144L280,144L280,128L304,128C308.389,128 312,124.389 312,120L312,56C312,51.611 308.389,48 304,48L288,48L288,32C288,27.611 284.389,24 280,24L248,24C243.611,24 240,27.611 240,32L240,48L224,48L224,32C224,27.611 220.389,24 216,24L184,24C179.611,24 176,27.611 176,32L176,48L160,48C155.611,48 152,51.611 152,56L152,120C152,124.389 155.611,128 160,128L184,128L184,144L104,144C90.834,144 80,154.834 80,168L80,224L24,224C19.611,224 16,227.611 16,232L16,280C16,284.389 19.611,288 24,288L80,288L80,352C80,365.166 90.834,376 104,376L168,376L168,392L136,392C131.611,392 128,395.611 128,400L128,432C128,436.389 131.611,440 136,440L408,440C412.389,440 416,436.389 416,432L416,400C416,395.611 412.389,392 408,392L376,392L376,376L456,376C477.933,375.974 495.974,357.933 496,336L496,184C495.974,162.067 477.933,144.026 456,144ZM400,360L152,360L152,160L400,160L400,360ZM256,40L272,40L272,48L256,48L256,40ZM192,40L208,40L208,48L192,48L192,40ZM168,64L296,64L296,112L168,112L168,64ZM200,128L264,128L264,144L200,144L200,128ZM32,272L32,240L80,240L80,272L32,272ZM136,360L104,360C99.611,360 96,356.389 96,352L96,168C96,163.611 99.611,160 104,160L136,160L136,360ZM400,424L144,424L144,408L400,408L400,424ZM360,392L184,392L184,376L360,376L360,392ZM480,336C480,349.166 469.166,360 456,360L416,360L416,160L456,160C469.166,160 480,170.834 480,184L480,336Z" style="fill-rule:nonzero;"/>
            <rect x="432" y="184" width="32" height="16" style="fill-rule:nonzero;"/>
            <rect x="432" y="216" width="32" height="16" style="fill-rule:nonzero;"/>
            <path d="M176,176L176,336C176,340.389 179.611,344 184,344L368,344C372.389,344 376,340.389 376,336L376,176C376,171.611 372.389,168 368,168L184,168C179.611,168 176,171.611 176,176ZM192,232L360,232L360,280L192,280L192,232ZM192,296L360,296L360,304L192,304L192,296ZM360,216L192,216L192,208L360,208L360,216ZM192,328L192,320L360,320L360,328L192,328ZM360,184L360,192L192,192L192,184L360,184Z" style="fill-rule:nonzero;"/>
        </g>
    </g>
</svg>
